X: 4418
T: Bonnet Creek
R: reel
M: 4/4
K: Fmajor
|:c4 c3 d|fdcB cBGB|F4 ~F3G|BccB d2 cB|
c4 ~c3 d|fdcB cBGB|F4 ~F3G|BccB d2 cB:|
|:c3d cB (G2|G) ~c2 d cBGF|B3c BG (F2|F)GBc dfdB|
c3d cB (G2|G) ~c2 d cBGB|F4 ~F3G|BccB d2 cB:|

